X:1
T:Title
%%score { 1 | 2 }
L:1/8
Q:1/4=100
M:4/4
K:F
V:1 treble nm="Grand Piano"
V:2 bass 
V:1
 [DF][^CE][DF][DG] [DF]2 [DB]2 | [_EA]2 [Ec]2 [DB]4 | [DF][^CE][DF][DG] [DF]2 [DB]2 | %3
w: Florence~W.~Williams * * * * *|||
 [EA]2 [EG]2 [Fc]4 | [^Fd][Fd][Fd][Fc] [FB][FA] G2 | [Ec][Ec][Ec][EB] [EA][EG] F2 | %6
w: |||
[M:17/16] [DB][DF][Fc]F[FB][FA]3/2Gc |[M:4/4] F2 d2 [DB]4 |] %8
w: ||
V:2
 [B,,B,][B,,B,][B,,B,][B,,B,] [B,,B,]2 [B,,F,]2 | [C,F,]2 [F,A,]2 [B,,F,]4 | %2
 [B,,B,][B,,B,][B,,B,][B,,B,] [B,,B,]2 [B,,F,]2 | [C,B,]2 [C,B,]2 [F,A,]4 | %4
 [D,A,][D,A,][D,A,][D,A,] [D,D][D,D] [G,B,]2 | [C,G,][C,G,][C,G,][C,G,] [C,C][C,B,] [F,A,]2 | %6
[M:17/16] [B,,B,][B,,B,][C,A,][C,A,][D,B,][D,B,]3/2[_E,B,_E][E,G,E] | %7
[M:4/4] [F,A,_E]2 [F,A,E]2 [B,,F,B,]4 |] %8

